X:101
T:Lord Nelson’s Hornpipe TS.101
T:Miss Grimstrobs Hornpipe,aka TS.083
T:Bridge of Lodi,The,aka TS.083
T:Saxon’s Hornpipe,aka TS.083
T:Nelson’s Hornpipe,aka TS.083
M:2/4
L:1/16
Q:1/4=96
S:Thomas Sands’ MS,1810,Lincolnshire
R:.hornpipe
N:Different key and setting to TS.232 Nelson’s Hornpipe
O:England;Lincolnshire
Z:vmp.Ruairidh Greig, 2011
K:C
G2c2 c2Bc|dBGB c4|ecec fdfd|geced4|
G2c2 c2Bc|dBGBc4|fedc BAG^F|G2G2G2:|
|:ef|gfed cBAG|A2F2 F2fg|gfed fedc|B2G2 G2ef|
gege fafa|gege fafa|gfed edcB|c4″cr. in ms”c2:|]

